images/reference/digitalocean.svg

<svg height="235.30667" viewBox="0 0 235.17332 235.30667" width="235.17332" xmlns="http://www.w3.org/2000/svg"><g fill="#4b73c2" transform="matrix(.13333333 0 0 -.13333333 0 235.30667)"><path d="m882 0v342c362 0 643 359 504 740-51 141-164 254-305 305-381 138-740-142-740-504h-341c0 577 558 1027 1163 838 264-83 475-293 557-557 189-606-260-1164-838-1164"/><path d="m883 341h-340v340h340z"/><path d="m543 79h-262v262h262z"/><path d="m281 341h-219v219h219z"/></g></svg>

<?xml version="1.0" encoding="UTF-8" standalone="no"?>
<!-- Created with Inkscape (http://www.inkscape.org/) -->

<svg
   xmlns:dc="http://purl.org/dc/elements/1.1/"
   xmlns:cc="http://creativecommons.org/ns#"
   xmlns:rdf="http://www.w3.org/1999/02/22-rdf-syntax-ns#"
   xmlns:svg="http://www.w3.org/2000/svg"
   xmlns="http://www.w3.org/2000/svg"
   xmlns:sodipodi="http://sodipodi.sourceforge.net/DTD/sodipodi-0.dtd"
   xmlns:inkscape="http://www.inkscape.org/namespaces/inkscape"
   version="1.1"
   id="svg2"
   xml:space="preserve"
   width="235.17332"
   height="235.30667"
   viewBox="0 0 235.17332 235.30667"
   sodipodi:docname="digitalocean.svg"
   inkscape:version="0.92.1 r15371"><metadata
     id="metadata8"><rdf:RDF><cc:Work
         rdf:about=""><dc:format>image/svg+xml</dc:format><dc:type
           rdf:resource="http://purl.org/dc/dcmitype/StillImage" /><dc:title></dc:title></cc:Work></rdf:RDF></metadata><defs
     id="defs6" /><sodipodi:namedview
     pagecolor="#ffffff"
     bordercolor="#666666"
     borderopacity="1"
     objecttolerance="10"
     gridtolerance="10"
     guidetolerance="10"
     inkscape:pageopacity="0"
     inkscape:pageshadow="2"
     inkscape:window-width="640"
     inkscape:window-height="480"
     id="namedview4"
     showgrid="false"
     inkscape:zoom="1.0029465"
     inkscape:cx="117.58666"
     inkscape:cy="117.65334"
     inkscape:window-x="0"
     inkscape:window-y="0"
     inkscape:window-maximized="0"
     inkscape:current-layer="g10" /><g
     id="g10"
     inkscape:groupmode="layer"
     inkscape:label="ink_ext_XXXXXX"
     transform="matrix(1.3333333,0,0,-1.3333333,0,235.30667)"><g
       id="g12"
       transform="scale(0.1)"><path
         d="m 882,0 v 342 c 362,0 643,359 504,740 -51,141 -164,254 -305,305 C 700,1525 341,1245 341,883 H 0 c 0,577 558,1027 1163,838 264,-83 475,-293 557,-557 C 1909,558 1460,0 882,0"
         style="fill:#4b73c2;fill-opacity:1;fill-rule:nonzero;stroke:none"
         id="path14"
         inkscape:connector-curvature="0" /><path
         d="M 883,341 H 543 V 681 H 883 V 341"
         style="fill:#4b73c2;fill-opacity:1;fill-rule:nonzero;stroke:none"
         id="path16"
         inkscape:connector-curvature="0" /><path
         d="M 543,79 H 281 V 341 H 543 V 79"
         style="fill:#4b73c2;fill-opacity:1;fill-rule:nonzero;stroke:none"
         id="path18"
         inkscape:connector-curvature="0" /><path
         d="M 281,341 H 62 V 560 H 281 V 341"
         style="fill:#4b73c2;fill-opacity:1;fill-rule:nonzero;stroke:none"
         id="path20"
         inkscape:connector-curvature="0" /></g></g></svg>
